X: 16556
T: Hamar Ower Da Taing
R: reel
M: 4/4
K: Amixolydian
|:c>A A/A/A cdec|ddfd gfed|c>A A/A/A cdec|defg e2e2:|
a2 af gfec|ddfd gefg|a2af gfec|defg e2e2|
a2 af gfec|ddfd gfed|c>A A/A/A cdec|defg e2e2||

